X: 5202
T: the Ullapool Ferry
P: Pat Houghton's Hornpipe
C: Muriel A Johnstone
S: RSCDS 52-10
R: reel
Z: 2019 John Chambers <jc:trillian.mit.edu>
M: C|
L: 1/8
K: A
E |:\
"A"A2cB "C#/A"AEEA | "D"FDFA "C#/A" EAce |\
"Bm"dcBA BFFc | "Bm"dcBA "E7"BEFG |
%
"A"A2cB "C#/A"AEEA | "D"FDFA "C#/A" EAce |\
"D/Bm"fedc "E7"BEFG |1 "A"A2A2 A2zG :|2 "A"A2a2 a2zB ||
%
"F#m"c2f2 agfe | "D"f2ed "C#/A"eAce |\
"Bm"dcBA BFFc | "Bm"dcBA "E7"B2cd |
%
"F#m"c2f2 agfe | "D"f2ed "C#/A"eAce |\
"Bm"dcBA "E7"BEGB | "A"A2a2 a3"G#/C#"g |
%
"F#m"a2A2 agfe | "D"gfed "C#/A"eAce |\
"Bm"dcBA BFFc | "Bm"dcBA "E7"BdcB |
%
"A"A2cB "C#/A7"AEEA | "D"FDFA "C#/A" EAce |\
"Bm"fedc "E7"BEFG | "A"A2a2 a3 |]
